!!!COM: Scriabin, Alexander
!!!OTL@@FR: Prélude en fa majeur
!!!OTL@@EN: Prelude in F Major
!!!OPR@@FR: 24 Préludes
!!!OPR@@EN: 24 Preludes
!!!OPS: 11
!!!ONM: 23
!!!ODT: 1895
!!!AGN: Prelude
**kern	**kern	**dynam
*staff2	*staff1	*staff1/2
*Ipiano	*Ipiano	*
*clefF4	*clefG2	*
*k[b-]	*k[b-]	*
*F:	*F:	*
*M3/4	*M3/4	*
*Xtuplet	*Xtuplet	*
=1	=1	=1
*^	*	*
8.FFL	4rA	12cL	.
.	.	12f	.
.	.	36ddL	.
16CJk	.	.	.
.	.	36ee	.
.	.	36ddJJ	.
4A	[2f	12ccL	.
.	.	12ff	.
.	.	12ddJ	.
4B-	.	12aaL	.
.	.	12gg	.
.	.	12ddJ	.
=2	=2	=2	=2
4A	4f]	12ccL	.
.	.	12ff	.
.	.	12dddJ	.
*v	*v	*	*
4C	12cccL	.
.	12ff	.
.	12ddJ	.
4r	12aaL	.
.	12cc	.
.	12fJ	.
=3	=3	=3
*^	*	*
4GG	4rA	12eL	.
.	.	12cc	.
.	.	12aaJ	.
[2G	4e	12ggL	.
.	.	12g	.
.	.	12aJ	.
.	4f	12eeL	.
.	.	12a	.
.	.	12bnJ	.
=4	=4	=4	=4
4G]	4e	12ddL	.
.	.	12cc	.
.	.	12gJ	.
*v	*v	*	*
2C	12b-XL	.
.	12f	.
.	12gJ	.
.	12eL	.
.	12f	.
.	12dJ	.
=5	=5	=5
*^	*	*
8.FFL	4rA	12cL	.
.	.	12f	.
.	.	36ddL	.
16CJk	.	.	.
.	.	36ee	.
.	.	36ddJJ	.
4A	[2f	12ccL	.
.	.	12ff	.
.	.	12ddJ	.
4B-	.	12aaL	.
.	.	12gg	.
.	.	12ddJ	.
=6	=6	=6	=6
4A	4f]	12ccL	.
.	.	12ff	.
.	.	12dddJ	.
*v	*v	*	*
4C	12cccL	.
.	12ff	.
.	12ddJ	.
4r	12aaL	.
.	12cc	.
.	12d#XJ	.
=7	=7	=7
*^	*	*
4EE	4rA	12eL	.
.	.	12a	.
.	.	12ffJ	.
[2E	4c	12eeL	.
.	.	12e	.
.	.	12fJ	.
.	4dn	12ccL	.
.	.	12f	.
.	.	12g#XJ	.
=8	=8	=8	=8
4E]	4c	12bnL	.
.	.	12a	.
.	.	12fJ	.
*v	*v	*	*
4AA	12aL	.
.	12e	.
.	12fJ	.
4r	12dL	.
.	12e	.
.	12cJ	.
=9	=9	=9
6AA	12r	.
.	12eL	.
12E\	12bnJ	.
*^	*	*
2c	4a	12ccL	.
.	.	12b	.
.	.	12ccJ	.
.	4g	12ddL	.
.	.	12b	.
.	.	12aJ	.
*v	*v	*	*
=10	=10	=10
8ccL	12dd#XL	.
.	12a	.
8cJ	.	.
.	12gJ	.
8DnL	12eeL	.
.	12g	.
8cJ	.	.
.	12f#XJ	.
4f#X	12aaL	.
.	12f#	.
.	12ddnJ	.
=11	=11	=11
6GG	12r	.
.	12dL	.
12D\	12aJ	.
*^	*	*
2B-	4g	12b-L	.
.	.	12a	.
.	.	12b-J	.
.	4fn	12ccL	.
.	.	12a	.
.	.	12gJ	.
*v	*v	*	*
=12	=12	=12
8b-L	12cc#XL	.
.	12g	.
8B-J	.	.
.	12fJ	.
8CnL	12ddL	.
.	12f	.
8B-J	.	.
.	12eJ	.
4e	12ggL	.
.	12e	.
.	12ccnJ	.
=13	=13	=13
6FF	12cL	.
.	12f	.
12C	36ddL	.
.	36ee	.
.	36ddJJ	.
*^	*	*
4A	[2f	12ccL	.
.	.	12ff	.
.	.	12ddJ	.
4B-	.	12aaL	.
.	.	12gg	.
.	.	12ddJ	.
=14	=14	=14	=14
4A	4f]	12ccL	.
.	.	12ff	.
.	.	12dddJ	.
*v	*v	*	*
4C	12cccL	.
.	12ff	.
.	12ddJ	.
4r	12aaL	.
.	12cc	.
.	12fJ	.
=15	=15	=15
4AA 4E 4c	12eL	.
.	12cc	.
.	36aaL	.
.	36bb-	.
.	36aaJJ	.
4C 4B- 4e	12ggL	.
.	12cc	.
.	12ggJ	.
4D 4A 4f	12ffL	.
.	12ee	.
.	12ddJ	.
=16	=16	=16
4A 4e	12ccL	.
.	12ee	.
.	36aaL	.
.	36bb-	.
.	36aaJJ	.
*clefG2	*	*
4c 4b-	12ggL	.
.	12cc	.
.	12ggJ	.
4f 4a	4ff	.
*clefF4	*	*
=17	=17	=17
6AA	12r	.
.	12eL	.
12E\	12bnJ	.
*^	*	*
2c	4a	12ccL	.
.	.	12b	.
.	.	12ccJ	.
.	4g	12ddL	.
.	.	12b	.
.	.	12aJ	.
*v	*v	*	*
=18	=18	=18
8ccL	12dd#XL	.
.	12a	.
8cJ	.	.
.	12gJ	.
8DnL	12eeL	.
.	12g	.
8cJ	.	.
.	12f#XJ	.
4f#X	12aaL	.
.	12f#	.
.	12ddnJ	.
=19	=19	=19
6GG	12r	.
.	12dL	.
12D\	12aJ	.
*^	*	*
2B-	4g	12b-L	.
.	.	12a	.
.	.	12b-J	.
.	4fn	12ccL	.
.	.	12a	.
.	.	12gJ	.
*v	*v	*	*
=20	=20	=20
8b-L	12cc#XL	.
.	12g	.
8B-J	.	.
.	12fJ	.
8CnL	12ddL	.
.	12f	.
8B-J	.	.
.	12eJ	.
4e	12ggL	.
.	12e	.
.	12ccnJ	.
=21	=21	=21
6FF	12cL	.
.	12f	.
12C	36ddL	.
.	36ee	.
.	36ddJJ	.
*^	*	*
4A	[2f	12ccL	.
.	.	12ff	.
.	.	12ddJ	.
4B-	.	12aaL	.
.	.	12gg	.
.	.	12ddJ	.
=22	=22	=22	=22
4A	4f]	12ccL	.
.	.	12ff	.
.	.	12dddJ	.
*v	*v	*	*
4C	12cccL	.
.	12ff	.
.	12ddJ	.
4r	12aaL	.
.	12cc	.
.	12fJ	.
=23	=23	=23
4AA 4E 4c	12eL	.
.	12cc	.
.	36aaL	.
.	36bb-	.
.	36aaJJ	.
4C 4B- 4e	12ggL	.
.	12cc	.
.	12ggJ	.
4D 4A 4f	12ffL	.
.	12ee	.
.	12ddJ	.
=24	=24	=24
4A 4e	12ccL	.
.	12ee	.
.	36aaL	.
.	36bb-	.
.	36aaJJ	.
*clefG2	*	*
4c 4b-	12ggL	.
.	12cc	.
.	12ggJ	.
4d 4a	4ff	.
*clefF4	*	*
=25	=25	=25
2AA 2E 2c	12cL	.
.	12e	.
.	36b-L	.
.	36cc	.
.	36b-JJ	.
.	12aL	.
.	12e	.
.	12aJ	.
4C 4B-	12gL	.
.	12f	.
.	12dJ	.
=26	=26	=26
8AL	12cL	.
.	12f	.
8CJ	.	.
.	12ccJ	.
4FF	4ff	.
4r	4r	.
==	==	==
*-	*-	*-
!!!system-decoration: {(*)}
!!!filter: flipper -a
!!!ENC: Bryan Jacob Bell
!!!END: November 2021 to April 2022
!!!PED: Günter Philipp
!!!PTL: Ausgewählte Klavierwerke (Edition Peters)
